X: 21
T:Spootiskerry
M:4/4
L:1/8
Q:180
K:G
T:Note: Last 4 bars, 4th time - play bars 5 to8 (second line).
DE|"G"G2 DE GDEG|DE GA "D"B2 AB|"G"G2 DE GA Bd|"C"ef ed "D"B2 AB|!
"G"G2 DE GDEG|DE GA "D"B2 AB|"C"g2 ed "D"ed BA|"G"B2 .G2 .G2::!
d2|"Em"g2 ed ed B2|"C"AB AG "D"E2 DE|"G"GA Bd ea ed|"D"B/2d/2B A2 A4|!
"Em"g2 ed ed B2|"C"AB AG "D"E2 DE|"G"GA Bd "C"ea "D"ed|"G"B2 G2 G2:||!
